;FLAVOR:UltiGCode
;TIME:25676
;MATERIAL:57449
;MATERIAL2:0

;Layer count: 96
;LAYER:0
M107
G0 F9000 X26.300 Y19.800 Z0.300
;TYPE:SKIRT
G1 F1200 X143.700 Y19.800 E14.08800
G1 X143.700 Y106.200 E24.45600
G1 X26.300 Y106.200 E38.54400
G1 X26.300 Y19.800 E48.91200
G0 F9000 X85.600 Y118.200
G1 F1200 X204.300 Y118.200 E63.15600
G1 X204.300 Y205.800 E73.66800
G1 X85.600 Y205.800 E87.91200
G1 X85.600 Y118.200 E98.42400
G10
G0 F9000 X139.900 Y102.400
;TYPE:WALL-INNER
G11
G1 F1200 X30.100 Y102.400 E111.60000
G1 X30.100 Y23.600 E121.05600
G1 X139.900 Y23.600 E134.23200
G1 X139.900 Y102.400 E143.68800
G0 F9000 X140.300 Y102.800
;TYPE:WALL-OUTER
G1 F1200 X29.700 Y102.800 E156.96000
G1 X29.700 Y23.200 E166.51200
G1 X140.300 Y23.200 E179.78400
G1 X140.300 Y102.800 E189.33600
G0 F9000 X139.758 Y102.140
;TYPE:SKIN
G1 F900 X61.357 Y23.739 E202.64109
G0 F9000 X60.792 Y23.739
G1 F900 X139.311 Y102.258 E215.96621
G0 F9000 X138.745 Y102.258
G1 F900 X60.226 Y23.739 E229.29132
G0 F9000 X61.923 Y23.739
G1 F900 X139.758 Y101.575 E242.50045
G0 F9000 X139.758 Y101.009
G1 F900 X62.489 Y23.739 E255.61351
G0 F9000 X63.054 Y23.739
G1 F900 X139.758 Y100.443 E268.63062
G0 F9000 X138.179 Y102.258
G1 F900 X59.660 Y23.739 E281.95573
G0 F9000 X59.095 Y23.739
G1 F900 X137.614 Y102.258 E295.28085
G0 F9000 X137.048 Y102.258
G1 F900 X58.529 Y23.739 E308.60596
G0 F9000 X57.963 Y23.739
G1 F900 X136.482 Y102.258 E321.93108
G0 F9000 X135.917 Y102.258
G1 F900 X57.397 Y23.739 E335.25628
G0 F9000 X56.832 Y23.739
G1 F900 X135.351 Y102.258 E348.58140
G0 F9000 X134.785 Y102.258
G1 F900 X56.266 Y23.739 E361.90651
G0 F9000 X55.700 Y23.739
G1 F900 X134.220 Y102.258 E375.23171
G0 F9000 X133.654 Y102.258
G1 F900 X55.135 Y23.739 E388.55683
G0 F9000 X54.569 Y23.739
G1 F900 X133.088 Y102.258 E401.88195
G0 F9000 X132.523 Y102.258
G1 F900 X54.003 Y23.739 E415.20715
G0 F9000 X53.438 Y23.739
G1 F900 X131.957 Y102.258 E428.53226
G0 F9000 X131.391 Y102.258
G1 F900 X52.872 Y23.739 E441.85738
G0 F9000 X52.306 Y23.739
G1 F900 X130.826 Y102.258 E455.18258
G0 F9000 X130.260 Y102.258
G1 F900 X51.741 Y23.739 E468.50770
G0 F9000 X51.175 Y23.739
G1 F900 X129.694 Y102.258 E481.83281
G0 F9000 X129.129 Y102.258
G1 F900 X50.609 Y23.739 E495.15801
G0 F9000 X50.044 Y23.739
G1 F900 X128.563 Y102.258 E508.48313
G0 F9000 X127.997 Y102.258
G1 F900 X49.478 Y23.739 E521.80825
G0 F9000 X48.912 Y23.739
G1 F900 X127.431 Y102.258 E535.13336
G0 F9000 X126.866 Y102.258
G1 F900 X48.347 Y23.739 E548.45848
G0 F9000 X47.781 Y23.739
G1 F900 X126.300 Y102.258 E561.78359
G0 F9000 X125.734 Y102.258
G1 F900 X47.215 Y23.739 E575.10871
G0 F9000 X46.649 Y23.739
G1 F900 X125.169 Y102.258 E588.43391
G0 F9000 X124.603 Y102.258
G1 F900 X46.084 Y23.739 E601.75903
G0 F9000 X45.518 Y23.739
G1 F900 X124.037 Y102.258 E615.08414
G0 F9000 X123.472 Y102.258
G1 F900 X44.952 Y23.739 E628.40935
G0 F9000 X44.387 Y23.739
G1 F900 X122.906 Y102.258 E641.73446
G0 F9000 X122.340 Y102.258
G1 F900 X43.821 Y23.739 E655.05958
G0 F9000 X43.255 Y23.739
G1 F900 X121.775 Y102.258 E668.38478
G0 F9000 X121.209 Y102.258
G1 F900 X42.690 Y23.739 E681.70989
G0 F9000 X42.124 Y23.739
G1 F900 X120.643 Y102.258 E695.03501
G0 F9000 X120.078 Y102.258
G1 F900 X41.558 Y23.739 E708.36021
G0 F9000 X40.993 Y23.739
G1 F900 X119.512 Y102.258 E721.68533
G0 F9000 X118.946 Y102.258
G1 F900 X40.427 Y23.739 E735.01044
G0 F9000 X39.861 Y23.739
G1 F900 X118.380 Y102.258 E748.33556
G0 F9000 X117.815 Y102.258
G1 F900 X39.296 Y23.739 E761.66068
G0 F9000 X38.730 Y23.739
G1 F900 X117.249 Y102.258 E774.98579
G0 F9000 X116.683 Y102.258
G1 F900 X38.164 Y23.739 E788.31091
G0 F9000 X37.598 Y23.739
G1 F900 X116.118 Y102.258 E801.63611
G0 F9000 X115.552 Y102.258
G1 F900 X37.033 Y23.739 E814.96123
G0 F9000 X36.467 Y23.739
G1 F900 X114.986 Y102.258 E828.28634
G0 F9000 X114.421 Y102.258
G1 F900 X35.901 Y23.739 E841.61154
G0 F9000 X35.336 Y23.739
G1 F900 X113.855 Y102.258 E854.93666
G0 F9000 X113.289 Y102.258
G1 F900 X34.770 Y23.739 E868.26178
G0 F9000 X34.204 Y23.739
G1 F900 X112.724 Y102.258 E881.58698
G0 F9000 X112.158 Y102.258
G1 F900 X33.639 Y23.739 E894.91209
G0 F9000 X33.073 Y23.739
G1 F900 X111.592 Y102.258 E908.23721
G0 F9000 X111.027 Y102.258
G1 F900 X32.507 Y23.739 E921.56241
G0 F9000 X31.942 Y23.739
G1 F900 X110.461 Y102.258 E934.88753
G0 F9000 X109.895 Y102.258
G1 F900 X31.376 Y23.739 E948.21264
G0 F9000 X30.810 Y23.739
G1 F900 X109.330 Y102.258 E961.53784
G0 F9000 X108.764 Y102.258
G1 F900 X30.245 Y23.739 E974.86296
G0 F9000 X30.239 Y24.299
G1 F900 X108.198 Y102.258 E988.09304
G0 F9000 X107.632 Y102.258
G1 F900 X30.239 Y24.865 E1001.22707
G0 F9000 X30.239 Y25.431
G1 F900 X107.067 Y102.258 E1014.26513
G0 F9000 X106.501 Y102.258
G1 F900 X30.239 Y25.996 E1027.20722
G0 F9000 X30.239 Y26.562
G1 F900 X105.935 Y102.258 E1040.05326
G0 F9000 X105.370 Y102.258
G1 F900 X30.239 Y27.128 E1052.80332
G0 F9000 X30.239 Y27.693
G1 F900 X104.804 Y102.258 E1065.45742
G0 F9000 X104.238 Y102.258
G1 F900 X30.239 Y28.259 E1078.01547
G0 F9000 X30.239 Y28.825
G1 F900 X103.673 Y102.258 E1090.47755
G0 F9000 X103.107 Y102.258
G1 F900 X30.239 Y29.390 E1102.84366
G0 F9000 X30.239 Y29.956
G1 F900 X102.541 Y102.258 E1115.11371
G0 F9000 X101.976 Y102.258
G1 F900 X30.239 Y30.522 E1127.28780
G0 F9000 X30.239 Y31.087
G1 F900 X101.410 Y102.258 E1139.36592
G0 F9000 X100.844 Y102.258
G1 F900 X30.239 Y31.653 E1151.34799
G0 F9000 X30.239 Y32.219
G1 F900 X100.279 Y102.258 E1163.23408
G0 F9000 X99.713 Y102.258
G1 F900 X30.239 Y32.785 E1175.02413
G0 F9000 X30.239 Y33.350
G1 F900 X99.147 Y102.258 E1186.71820
G0 F9000 X98.581 Y102.258
G1 F900 X30.239 Y33.916 E1198.31623
G0 F9000 X30.239 Y34.482
G1 F900 X98.016 Y102.258 E1209.81828
G0 F9000 X97.450 Y102.258
G1 F900 X30.239 Y35.047 E1221.22436
G0 F9000 X30.239 Y35.613
G1 F900 X96.884 Y102.258 E1232.53440
G0 F9000 X96.319 Y102.258
G1 F900 X30.239 Y36.179 E1243.74846
G0 F9000 X30.239 Y36.744
G1 F900 X95.753 Y102.258 E1254.86655
G0 F9000 X95.187 Y102.258
G1 F900 X30.239 Y37.310 E1265.88859
G0 F9000 X30.239 Y37.876
G1 F900 X94.622 Y102.258 E1276.81467
G0 F9000 X94.056 Y102.258
G1 F900 X30.239 Y38.441 E1287.64477
G0 F9000 X30.239 Y39.007
G1 F900 X93.490 Y102.258 E1298.37882
G0 F9000 X92.925 Y102.258
G1 F900 X30.239 Y39.573 E1309.01690
G0 F9000 X30.239 Y40.138
G1 F900 X92.359 Y102.258 E1319.55902
G0 F9000 X91.793 Y102.258
G1 F900 X30.239 Y40.704 E1330.00508
G0 F9000 X30.239 Y41.270
G1 F900 X91.228 Y102.258 E1340.35517
G0 F9000 X90.662 Y102.258
G1 F900 X30.239 Y41.835 E1350.60929
G0 F9000 X30.239 Y42.401
G1 F900 X90.096 Y102.258 E1360.76736
G0 F9000 X89.531 Y102.258
G1 F900 X30.239 Y42.967 E1370.82946
G0 F9000 X30.239 Y43.533
G1 F900 X88.965 Y102.258 E1380.79551
G0 F9000 X88.399 Y102.258
G1 F900 X30.239 Y44.098 E1390.66559
G0 F9000 X30.239 Y44.664
G1 F900 X87.833 Y102.258 E1400.43962
G0 F9000 X87.268 Y102.258
G1 F900 X30.239 Y45.230 E1410.11767
G0 F9000 X30.239 Y45.795
G1 F900 X86.702 Y102.258 E1419.69976
G0 F9000 X86.136 Y102.258
G1 F900 X30.239 Y46.361 E1429.18580
G0 F9000 X30.239 Y46.927
G1 F900 X85.571 Y102.258 E1438.57587
G0 F9000 X85.005 Y102.258
G1 F900 X30.239 Y47.492 E1447.86996
G0 F9000 X30.239 Y48.058
G1 F900 X84.439 Y102.258 E1457.06801
G0 F9000 X83.874 Y102.258
G1 F900 X30.239 Y48.624 E1466.17009
G0 F9000 X30.239 Y49.189
G1 F900 X83.308 Y102.258 E1475.17619
G0 F9000 X82.742 Y102.258
G1 F900 X30.239 Y49.755 E1484.08625
G0 F9000 X30.239 Y50.321
G1 F900 X82.177 Y102.258 E1492.90033
G0 F9000 X81.611 Y102.258
G1 F900 X30.239 Y50.886 E1501.61845
G0 F9000 X30.239 Y51.452
G1 F900 X81.045 Y102.258 E1510.24052
G0 F9000 X80.480 Y102.258
G1 F900 X30.239 Y52.018 E1518.76661
G0 F9000 X30.239 Y52.583
G1 F900 X79.914 Y102.258 E1527.19674
G0 F9000 X79.348 Y102.258
G1 F900 X30.239 Y53.149 E1535.53081
G0 F9000 X30.239 Y53.715
G1 F900 X78.783 Y102.258 E1543.76892
G0 F9000 X78.217 Y102.258
G1 F900 X30.239 Y54.281 E1551.91097
G0 F9000 X30.239 Y54.846
G1 F900 X77.651 Y102.258 E1559.95705
G0 F9000 X77.085 Y102.258
G1 F900 X30.239 Y55.412 E1567.90708
G0 F9000 X30.239 Y55.978
G1 F900 X76.520 Y102.258 E1575.76114
G0 F9000 X75.954 Y102.258
G1 F900 X30.239 Y56.543 E1583.51924
G0 F9000 X30.239 Y57.109
G1 F900 X75.388 Y102.258 E1591.18127
G0 F9000 X74.823 Y102.258
G1 F900 X30.239 Y57.675 E1598.74735
G0 F9000 X30.239 Y58.240
G1 F900 X74.257 Y102.258 E1606.21745
G0 F9000 X73.691 Y102.258
G1 F900 X30.239 Y58.806 E1613.59150
G0 F9000 X30.239 Y59.372
G1 F900 X73.126 Y102.258 E1620.86958
G0 F9000 X72.560 Y102.258
G1 F900 X30.239 Y59.937 E1628.05169
G0 F9000 X30.239 Y60.503
G1 F900 X71.994 Y102.258 E1635.13775
G0 F9000 X71.429 Y102.258
G1 F900 X30.239 Y61.069 E1642.12784
G0 F9000 X30.239 Y61.634
G1 F900 X70.863 Y102.258 E1649.02196
G0 F9000 X70.297 Y102.258
G1 F900 X30.239 Y62.200 E1655.82003
G0 F9000 X30.239 Y62.766
G1 F900 X69.732 Y102.258 E1662.52213
G0 F9000 X69.166 Y102.258
G1 F900 X30.239 Y63.332 E1669.12817
G0 F9000 X30.239 Y63.897
G1 F900 X68.600 Y102.258 E1675.63825
G0 F9000 X68.034 Y102.258
G1 F900 X30.239 Y64.463 E1682.05227
G0 F9000 X30.239 Y65.029
G1 F900 X67.469 Y102.258 E1688.37033
G0 F9000 X66.903 Y102.258
G1 F900 X30.239 Y65.594 E1694.59242
G0 F9000 X30.239 Y66.160
G1 F900 X66.337 Y102.258 E1700.71845
G0 F9000 X65.772 Y102.258
G1 F900 X30.239 Y66.726 E1706.74852
G0 F9000 X30.239 Y67.291
G1 F900 X65.206 Y102.258 E1712.68261
G0 F9000 X64.640 Y102.258
G1 F900 X30.239 Y67.857 E1718.52066
G0 F9000 X30.239 Y68.423
G1 F900 X64.075 Y102.258 E1724.26273
G0 F9000 X63.509 Y102.258
G1 F900 X30.239 Y68.988 E1729.90884
G0 F9000 X30.239 Y69.554
G1 F900 X62.943 Y102.258 E1735.45889
G0 F9000 X62.378 Y102.258
G1 F900 X30.239 Y70.120 E1740.91297
G0 F9000 X30.239 Y70.685
G1 F900 X61.812 Y102.258 E1746.27109
G0 F9000 X61.246 Y102.258
G1 F900 X30.239 Y71.251 E1751.53315
G0 F9000 X30.239 Y71.817
G1 F900 X60.681 Y102.258 E1756.69925
G0 F9000 X60.115 Y102.258
G1 F900 X30.239 Y72.382 E1761.76937
G0 F9000 X30.239 Y72.948
G1 F900 X59.549 Y102.258 E1766.74344
G0 F9000 X58.984 Y102.258
G1 F900 X30.239 Y73.514 E1771.62155
G0 F9000 X30.239 Y74.080
G1 F900 X58.418 Y102.258 E1776.40360
G0 F9000 X57.852 Y102.258
G1 F900 X30.239 Y74.645 E1781.08968
G0 F9000 X30.239 Y75.211
G1 F900 X57.286 Y102.258 E1785.67971
G0 F9000 X56.721 Y102.258
G1 F900 X30.239 Y75.777 E1790.17377
G0 F9000 X30.239 Y76.342
G1 F900 X56.155 Y102.258 E1794.57186
G0 F9000 X55.589 Y102.258
G1 F900 X30.239 Y76.908 E1798.87389
G0 F9000 X30.239 Y77.474
G1 F900 X55.024 Y102.258 E1803.07996
G0 F9000 X54.458 Y102.258
G1 F900 X30.239 Y78.039 E1807.19006
G0 F9000 X30.239 Y78.605
G1 F900 X53.892 Y102.258 E1811.20411
G0 F9000 X53.327 Y102.258
G1 F900 X30.239 Y79.171 E1815.12219
G0 F9000 X30.239 Y79.736
G1 F900 X52.761 Y102.258 E1818.94430
G0 F9000 X52.195 Y102.258
G1 F900 X30.239 Y80.302 E1822.67036
G0 F9000 X30.239 Y80.868
G1 F900 X51.630 Y102.258 E1826.30045
G0 F9000 X51.064 Y102.258
G1 F900 X30.239 Y81.433 E1829.83457
G0 F9000 X30.239 Y81.999
G1 F900 X50.498 Y102.258 E1833.27263
G0 F9000 X49.933 Y102.258
G1 F900 X30.239 Y82.565 E1836.61473
G0 F9000 X30.239 Y83.131
G1 F900 X49.367 Y102.258 E1839.86077
G0 F9000 X48.801 Y102.258
G1 F900 X30.239 Y83.696 E1843.01085
G0 F9000 X30.239 Y84.262
G1 F900 X48.235 Y102.258 E1846.06487
G0 F9000 X47.670 Y102.258
G1 F900 X30.239 Y84.828 E1849.02293
G0 F9000 X30.239 Y85.393
G1 F900 X47.104 Y102.258 E1851.88501
G0 F9000 X46.538 Y102.258
G1 F900 X30.239 Y85.959 E1854.65104
G0 F9000 X30.239 Y86.525
G1 F900 X45.973 Y102.258 E1857.32111
G0 F9000 X45.407 Y102.258
G1 F900 X30.239 Y87.090 E1859.89520
G0 F9000 X30.239 Y87.656
G1 F900 X44.841 Y102.258 E1862.37324
G0 F9000 X44.276 Y102.258
G1 F900 X30.239 Y88.222 E1864.75532
G0 F9000 X30.239 Y88.787
G1 F900 X43.710 Y102.258 E1867.04142
G0 F9000 X43.144 Y102.258
G1 F900 X30.239 Y89.353 E1869.23147
G0 F9000 X30.239 Y89.919
G1 F900 X42.579 Y102.258 E1871.32555
G0 F9000 X42.013 Y102.258
G1 F900 X30.239 Y90.484 E1873.32367
G0 F9000 X30.239 Y91.050
G1 F900 X41.447 Y102.258 E1875.22573
G0 F9000 X40.882 Y102.258
G1 F900 X30.239 Y91.616 E1877.03182
G0 F9000 X30.239 Y92.181
G1 F900 X40.316 Y102.258 E1878.74195
G0 F9000 X39.750 Y102.258
G1 F900 X30.239 Y92.747 E1880.35602
G0 F9000 X30.239 Y93.313
G1 F900 X39.185 Y102.258 E1881.87412
G0 F9000 X38.619 Y102.258
G1 F900 X30.239 Y93.879 E1883.29617
G0 F9000 X30.239 Y94.444
G1 F900 X38.053 Y102.258 E1884.62225
G0 F9000 X37.487 Y102.258
G1 F900 X30.239 Y95.010 E1885.85227
G0 F9000 X30.239 Y95.576
G1 F900 X36.922 Y102.258 E1886.98633
G0 F9000 X36.356 Y102.258
G1 F900 X30.239 Y96.141 E1888.02442
G0 F9000 X30.239 Y96.707
G1 F900 X35.790 Y102.258 E1888.96645
G0 F9000 X35.225 Y102.258
G1 F900 X30.239 Y97.273 E1889.81252
G0 F9000 X30.239 Y97.838
G1 F900 X34.659 Y102.258 E1890.56262
G0 F9000 X34.093 Y102.258
G1 F900 X30.239 Y98.404 E1891.21667
G0 F9000 X30.239 Y98.970
G1 F900 X33.528 Y102.258 E1891.77474
G0 F9000 X32.962 Y102.258
G1 F900 X30.239 Y99.535 E1892.23685
G0 F9000 X30.239 Y100.101
G1 F900 X32.396 Y102.258 E1892.60291
G0 F9000 X31.831 Y102.258
G1 F900 X30.239 Y100.667 E1892.87299
G0 F9000 X30.239 Y101.232
G1 F900 X31.265 Y102.258 E1893.04711
G0 F9000 X30.699 Y102.258
G1 F900 X30.239 Y101.798 E1893.12518
G0 F9000 X63.620 Y23.739
G1 F900 X139.758 Y99.878 E1906.04631
G0 F9000 X139.758 Y99.312
G1 F900 X64.186 Y23.739 E1918.87139
G0 F9000 X64.751 Y23.739
G1 F900 X139.758 Y98.746 E1931.60050
G0 F9000 X139.758 Y98.181
G1 F900 X65.317 Y23.739 E1944.23364
G0 F9000 X65.883 Y23.739
G1 F900 X139.758 Y97.615 E1956.77073
G0 F9000 X139.758 Y97.049
G1 F900 X66.448 Y23.739 E1969.21185
G0 F9000 X67.014 Y23.739
G1 F900 X139.758 Y96.484 E1981.55700
G0 F9000 X139.758 Y95.918
G1 F900 X67.580 Y23.739 E1993.80609
G0 F9000 X68.146 Y23.739
G1 F900 X139.758 Y95.352 E2005.95914
G0 F9000 X139.758 Y94.786
G1 F900 X68.711 Y23.739 E2018.01621
G0 F9000 X69.277 Y23.739
G1 F900 X139.758 Y94.221 E2029.97732
G0 F9000 X139.758 Y93.655
G1 F900 X69.843 Y23.739 E2041.84238
G0 F9000 X70.408 Y23.739
G1 F900 X139.758 Y93.089 E2053.61146
G0 F9000 X139.758 Y92.524
G1 F900 X70.974 Y23.739 E2065.28458
G0 F9000 X71.540 Y23.739
G1 F900 X139.758 Y91.958 E2076.86164
G0 F9000 X139.758 Y91.392
G1 F900 X72.105 Y23.739 E2088.34274
G0 F9000 X72.671 Y23.739
G1 F900 X139.758 Y90.827 E2099.72786
G0 F9000 X139.758 Y90.261
G1 F900 X73.237 Y23.739 E2111.01693
G0 F9000 X73.802 Y23.739
G1 F900 X139.758 Y89.695 E2122.21004
G0 F9000 X139.758 Y89.130
G1 F900 X74.368 Y23.739 E2133.30717
G0 F9000 X74.934 Y23.739
G1 F900 X139.758 Y88.564 E2144.30826
G0 F9000 X139.758 Y87.998
G1 F900 X75.499 Y23.739 E2155.21337
G0 F9000 X76.065 Y23.739
G1 F900 X139.758 Y87.433 E2166.02252
G0 F9000 X139.758 Y86.867
G1 F900 X76.631 Y23.739 E2176.73561
G0 F9000 X77.196 Y23.739
G1 F900 X139.758 Y86.301 E2187.35273
G0 F9000 X139.758 Y85.735
G1 F900 X77.762 Y23.739 E2197.87380
G0 F9000 X78.328 Y23.739
G1 F900 X139.758 Y85.170 E2208.29890
G0 F9000 X139.758 Y84.604
G1 F900 X78.894 Y23.739 E2218.62795
G0 F9000 X79.459 Y23.739
G1 F900 X139.758 Y84.038 E2228.86103
G0 F9000 X139.758 Y83.473
G1 F900 X80.025 Y23.739 E2238.99814
G0 F9000 X80.591 Y23.739
G1 F900 X139.758 Y82.907 E2249.03920
G0 F9000 X139.758 Y82.341
G1 F900 X81.156 Y23.739 E2258.98429
G0 F9000 X81.722 Y23.739
G1 F900 X139.758 Y81.776 E2268.83341
G0 F9000 X139.758 Y81.210
G1 F900 X82.288 Y23.739 E2278.58648
G0 F9000 X82.853 Y23.739
G1 F900 X139.758 Y80.644 E2288.24358
G0 F9000 X139.758 Y80.079
G1 F900 X83.419 Y23.739 E2297.80471
G0 F9000 X83.985 Y23.739
G1 F900 X139.758 Y79.513 E2307.26978
G0 F9000 X139.758 Y78.947
G1 F900 X84.550 Y23.739 E2316.63889
G0 F9000 X85.116 Y23.739
G1 F900 X139.758 Y78.382 E2325.91203
G0 F9000 X139.758 Y77.816
G1 F900 X85.682 Y23.739 E2335.08912
G0 F9000 X86.247 Y23.739
G1 F900 X139.758 Y77.250 E2344.17024
G0 F9000 X139.758 Y76.685
G1 F900 X86.813 Y23.739 E2353.15538
G0 F9000 X87.379 Y23.739
G1 F900 X139.758 Y76.119 E2362.04448
G0 F9000 X139.758 Y75.553
G1 F900 X87.944 Y23.739 E2370.83761
G0 F9000 X88.510 Y23.739
G1 F900 X139.758 Y74.987 E2379.53468
G0 F9000 X139.758 Y74.422
G1 F900 X89.076 Y23.739 E2388.13579
G0 F9000 X89.642 Y23.739
G1 F900 X139.758 Y73.856 E2396.64084
G0 F9000 X139.758 Y73.290
G1 F900 X90.207 Y23.739 E2405.04992
