;FLAVOR:UltiGCode
;TIME:16098
;MATERIAL:33244
;MATERIAL2:0

;Layer count: 120
;LAYER:0
M107
G0 F9000 X56.300 Y69.300 Z0.300
;TYPE:SKIRT
G1 F1200 X173.700 Y69.300 E14.08800
G1 X173.700 Y155.700 E24.45600
G1 X56.300 Y155.700 E38.54400
G1 X56.300 Y69.300 E48.91200
G10
G0 F9000 X60.100 Y73.100
;TYPE:WALL-INNER
G11
G1 F1200 X169.900 Y73.100 E62.08800
G1 X169.900 Y151.900 E71.54400
G1 X60.100 Y151.900 E84.72000
G1 X60.100 Y73.100 E94.17600
G0 F9000 X59.700 Y72.700
;TYPE:WALL-OUTER
G1 F1200 X170.300 Y72.700 E107.44800
G1 X170.300 Y152.300 E117.00000
G1 X59.700 Y152.300 E130.27200
G1 X59.700 Y72.700 E139.82400
G0 F9000 X60.512 Y73.239
;TYPE:SKIN
G1 F900 X139.031 Y151.759 E153.14920
G0 F9000 X138.465 Y151.759
G1 F900 X60.239 Y73.533 E166.42459
G0 F9000 X60.239 Y74.099
G1 F900 X137.899 Y151.759 E179.60393
G0 F9000 X137.334 Y151.759
G1 F900 X60.239 Y74.664 E192.68739
G0 F9000 X60.239 Y75.230
G1 F900 X136.768 Y151.759 E205.67479
G0 F9000 X136.202 Y151.759
G1 F900 X60.239 Y75.796 E218.56614
G0 F9000 X60.239 Y76.361
G1 F900 X135.637 Y151.759 E231.36160
G0 F9000 X135.071 Y151.759
G1 F900 X60.239 Y76.927 E244.06101
G0 F9000 X60.239 Y77.493
G1 F900 X134.505 Y151.759 E256.66437
G0 F9000 X133.940 Y151.759
G1 F900 X60.239 Y78.058 E269.17185
G0 F9000 X60.239 Y78.624
G1 F900 X133.374 Y151.759 E281.58327
G0 F9000 X132.808 Y151.759
G1 F900 X60.239 Y79.190 E293.89864
G0 F9000 X60.239 Y79.755
G1 F900 X132.243 Y151.759 E306.11812
G0 F9000 X131.677 Y151.759
G1 F900 X60.239 Y80.321 E318.24155
G0 F9000 X60.239 Y80.887
G1 F900 X131.111 Y151.759 E330.26893
G0 F9000 X130.546 Y151.759
G1 F900 X60.239 Y81.453 E342.20034
G0 F9000 X60.239 Y82.018
G1 F900 X129.980 Y151.759 E354.03578
G0 F9000 X129.414 Y151.759
G1 F900 X60.239 Y82.584 E365.77516
G0 F9000 X60.239 Y83.150
G1 F900 X128.848 Y151.759 E377.41850
G0 F9000 X128.283 Y151.759
G1 F900 X60.239 Y83.715 E388.96595
G0 F9000 X60.239 Y84.281
G1 F900 X127.717 Y151.759 E400.41734
G0 F9000 X127.151 Y151.759
G1 F900 X60.239 Y84.847 E411.77269
G0 F9000 X60.239 Y85.412
G1 F900 X126.586 Y151.759 E423.03215
G0 F9000 X126.020 Y151.759
G1 F900 X60.239 Y85.978 E434.19555
G0 F9000 X60.239 Y86.544
G1 F900 X125.454 Y151.759 E445.26290
G0 F9000 X124.889 Y151.759
G1 F900 X60.239 Y87.109 E456.23437
G0 F9000 X60.239 Y87.675
G1 F900 X124.323 Y151.759 E467.10979
G0 F9000 X123.757 Y151.759
G1 F900 X60.239 Y88.241 E477.88915
G0 F9000 X60.239 Y88.806
G1 F900 X123.192 Y151.759 E488.57263
G0 F9000 X122.626 Y151.759
G1 F900 X60.239 Y89.372 E499.16005
G0 F9000 X60.239 Y89.938
G1 F900 X122.060 Y151.759 E509.65142
G0 F9000 X121.495 Y151.759
G1 F900 X60.239 Y90.504 E520.04683
G0 F9000 X60.239 Y91.069
G1 F900 X120.929 Y151.759 E530.34626
G0 F9000 X120.363 Y151.759
G1 F900 X60.239 Y91.635 E540.54964
G0 F9000 X60.239 Y92.201
G1 F900 X119.798 Y151.759 E550.65706
G0 F9000 X119.232 Y151.759
G1 F900 X60.239 Y92.766 E560.66850
G0 F9000 X60.239 Y93.332
G1 F900 X118.666 Y151.759 E570.58389
G0 F9000 X118.100 Y151.759
G1 F900 X60.239 Y93.898 E580.40323
G0 F9000 X60.239 Y94.463
G1 F900 X117.535 Y151.759 E590.12668
G0 F9000 X116.969 Y151.759
G1 F900 X60.239 Y95.029 E599.75408
G0 F9000 X60.239 Y95.595
G1 F900 X116.403 Y151.759 E609.28543
G0 F9000 X115.838 Y151.759
G1 F900 X60.239 Y96.160 E618.72089
G0 F9000 X60.239 Y96.726
G1 F900 X115.272 Y151.759 E628.06030
G0 F9000 X114.706 Y151.759
G1 F900 X60.239 Y97.292 E637.30366
G0 F9000 X60.239 Y97.857
G1 F900 X114.141 Y151.759 E646.45113
G0 F9000 X113.575 Y151.759
G1 F900 X60.239 Y98.423 E655.50255
G0 F9000 X60.239 Y98.989
G1 F900 X113.009 Y151.759 E664.45792
G0 F9000 X112.444 Y151.759
G1 F900 X60.239 Y99.554 E673.31740
G0 F9000 X60.239 Y100.120
G1 F900 X111.878 Y151.759 E682.08083
G0 F9000 X111.312 Y151.759
G1 F900 X60.239 Y100.686 E690.74820
G0 F9000 X60.239 Y101.252
G1 F900 X110.747 Y151.759 E699.31961
G0 F9000 X110.181 Y151.759
G1 F900 X60.239 Y101.817 E707.79505
G0 F9000 X60.239 Y102.383
G1 F900 X109.615 Y151.759 E716.17443
G0 F9000 X109.050 Y151.759
G1 F900 X60.239 Y102.949 E724.45785
G0 F9000 X60.239 Y103.514
G1 F900 X108.484 Y151.759 E732.64530
G0 F9000 X107.918 Y151.759
G1 F900 X60.239 Y104.080 E740.73669
G0 F9000 X60.239 Y104.646
G1 F900 X107.352 Y151.759 E748.73203
G0 F9000 X106.787 Y151.759
G1 F900 X60.239 Y105.211 E756.63149
G0 F9000 X60.239 Y105.777
G1 F900 X106.221 Y151.759 E764.43490
G0 F9000 X105.655 Y151.759
G1 F900 X60.239 Y106.343 E772.14225
G0 F9000 X60.239 Y106.908
G1 F900 X105.090 Y151.759 E779.75371
G0 F9000 X104.524 Y151.759
G1 F900 X60.239 Y107.474 E787.26913
G0 F9000 X60.239 Y108.040
G1 F900 X103.958 Y151.759 E794.68849
G0 F9000 X103.393 Y151.759
G1 F900 X60.239 Y108.605 E802.01196
G0 F9000 X60.239 Y109.171
G1 F900 X102.827 Y151.759 E809.23939
G0 F9000 X102.261 Y151.759
G1 F900 X60.239 Y109.737 E816.37076
G0 F9000 X60.239 Y110.303
G1 F900 X101.696 Y151.759 E823.40616
G0 F9000 X101.130 Y151.759
G1 F900 X60.239 Y110.868 E830.34559
G0 F9000 X60.239 Y111.434
G1 F900 X100.564 Y151.759 E837.18897
G0 F9000 X99.999 Y151.759
G1 F900 X60.239 Y112.000 E843.93638
G0 F9000 X60.239 Y112.565
G1 F900 X99.433 Y151.759 E850.58782
G0 F9000 X98.867 Y151.759
G1 F900 X60.239 Y113.131 E857.14321
G0 F9000 X60.239 Y113.697
G1 F900 X98.301 Y151.759 E863.60255
G0 F9000 X97.736 Y151.759
G1 F900 X60.239 Y114.262 E869.96600
G0 F9000 X60.239 Y114.828
G1 F900 X97.170 Y151.759 E876.23340
G0 F9000 X96.604 Y151.759
G1 F900 X60.239 Y115.394 E882.40474
G0 F9000 X60.239 Y115.959
G1 F900 X96.039 Y151.759 E888.48021
G0 F9000 X95.473 Y151.759
G1 F900 X60.239 Y116.525 E894.45961
G0 F9000 X60.239 Y117.091
G1 F900 X94.907 Y151.759 E900.34297
G0 F9000 X94.342 Y151.759
G1 F900 X60.239 Y117.656 E906.13044
G0 F9000 X60.239 Y118.222
G1 F900 X93.776 Y151.759 E911.82186
G0 F9000 X93.210 Y151.759
G1 F900 X60.239 Y118.788 E917.41722
G0 F9000 X60.239 Y119.353
G1 F900 X92.645 Y151.759 E922.91670
G0 F9000 X92.079 Y151.759
G1 F900 X60.239 Y119.919 E928.32013
G0 F9000 X60.239 Y120.485
G1 F900 X91.513 Y151.759 E933.62750
G0 F9000 X90.948 Y151.759
G1 F900 X60.239 Y121.051 E938.83891
G0 F9000 X60.239 Y121.616
G1 F900 X90.382 Y151.759 E943.95435
G0 F9000 X89.816 Y151.759
G1 F900 X60.239 Y122.182 E948.97373
G0 F9000 X60.239 Y122.748
G1 F900 X89.251 Y151.759 E953.89714
G0 F9000 X88.685 Y151.759
G1 F900 X60.239 Y123.313 E958.72459
G0 F9000 X60.239 Y123.879
G1 F900 X88.119 Y151.759 E963.45598
G0 F9000 X87.553 Y151.759
G1 F900 X60.239 Y124.445 E968.09132
G0 F9000 X60.239 Y125.010
G1 F900 X86.988 Y151.759 E972.63078
G0 F9000 X86.422 Y151.759
G1 F900 X60.239 Y125.576 E977.07418
G0 F9000 X60.239 Y126.142
G1 F900 X85.856 Y151.759 E981.42153
G0 F9000 X85.291 Y151.759
G1 F900 X60.239 Y126.707 E985.67299
G0 F9000 X60.239 Y127.273
G1 F900 X84.725 Y151.759 E989.82841
G0 F9000 X84.159 Y151.759
G1 F900 X60.239 Y127.839 E993.88777
G0 F9000 X60.239 Y128.404
G1 F900 X83.594 Y151.759 E997.85124
G0 F9000 X83.028 Y151.759
G1 F900 X60.239 Y128.970 E1001.71866
G0 F9000 X60.239 Y129.536
G1 F900 X82.462 Y151.759 E1005.49003
G0 F9000 X81.897 Y151.759
G1 F900 X60.239 Y130.101 E1009.16551
G0 F9000 X60.239 Y130.667
G1 F900 X81.331 Y151.759 E1012.74495
G0 F9000 X80.765 Y151.759
G1 F900 X60.239 Y131.233 E1016.22832
G0 F9000 X60.239 Y131.799
G1 F900 X80.200 Y151.759 E1019.61573
G0 F9000 X79.634 Y151.759
G1 F900 X60.239 Y132.364 E1022.90717
G0 F9000 X60.239 Y132.930
G1 F900 X79.068 Y151.759 E1026.10256
G0 F9000 X78.502 Y151.759
G1 F900 X60.239 Y133.496 E1029.20189
G0 F9000 X60.239 Y134.061
G1 F900 X77.937 Y151.759 E1032.20534
G0 F9000 X77.371 Y151.759
G1 F900 X60.239 Y134.627 E1035.11274
G0 F9000 X60.239 Y135.193
G1 F900 X76.805 Y151.759 E1037.92408
G0 F9000 X76.240 Y151.759
G1 F900 X60.239 Y135.758 E1040.63954
G0 F9000 X60.239 Y136.324
G1 F900 X75.674 Y151.759 E1043.25895
G0 F9000 X75.108 Y151.759
G1 F900 X60.239 Y136.890 E1045.78230
G0 F9000 X60.239 Y137.455
G1 F900 X74.543 Y151.759 E1048.20977
G0 F9000 X73.977 Y151.759
G1 F900 X60.239 Y138.021 E1050.54119
G0 F9000 X60.239 Y138.587
G1 F900 X73.411 Y151.759 E1052.77655
G0 F9000 X72.846 Y151.759
G1 F900 X60.239 Y139.152 E1054.91603
G0 F9000 X60.239 Y139.718
G1 F900 X72.280 Y151.759 E1056.95946
G0 F9000 X71.714 Y151.759
G1 F900 X60.239 Y140.284 E1058.90683
G0 F9000 X60.239 Y140.850
G1 F900 X71.149 Y151.759 E1060.75823
G0 F9000 X70.583 Y151.759
G1 F900 X60.239 Y141.415 E1062.51367
G0 F9000 X60.239 Y141.981
G1 F900 X70.017 Y151.759 E1064.17305
G0 F9000 X69.452 Y151.759
G1 F900 X60.239 Y142.547 E1065.73646
G0 F9000 X60.239 Y143.112
G1 F900 X68.886 Y151.759 E1067.20391
G0 F9000 X68.320 Y151.759
G1 F900 X60.239 Y143.678 E1068.57530
G0 F9000 X60.239 Y144.244
G1 F900 X67.754 Y151.759 E1069.85063
G0 F9000 X67.189 Y151.759
G1 F900 X60.239 Y144.809 E1071.03009
G0 F9000 X60.239 Y145.375
G1 F900 X66.623 Y151.759 E1072.11349
G0 F9000 X66.057 Y151.759
G1 F900 X60.239 Y145.941 E1073.10084
G0 F9000 X60.239 Y146.506
G1 F900 X65.492 Y151.759 E1073.99230
G0 F9000 X64.926 Y151.759
G1 F900 X60.239 Y147.072 E1074.78771
G0 F9000 X60.239 Y147.638
G1 F900 X64.360 Y151.759 E1075.48707
G0 F9000 X63.795 Y151.759
G1 F900 X60.239 Y148.203 E1076.09054
G0 F9000 X60.239 Y148.769
G1 F900 X63.229 Y151.759 E1076.59796
G0 F9000 X62.663 Y151.759
G1 F900 X60.239 Y149.335 E1077.00933
G0 F9000 X60.239 Y149.900
G1 F900 X62.098 Y151.759 E1077.32481
G0 F9000 X61.532 Y151.759
G1 F900 X60.239 Y150.466 E1077.54424
G0 F9000 X60.239 Y151.032
G1 F900 X60.966 Y151.759 E1077.66762
G0 F9000 X60.401 Y151.759
G1 F900 X60.239 Y151.598 E1077.69502
G0 F9000 X61.077 Y73.239
G1 F900 X139.597 Y151.759 E1091.02031
G0 F9000 X140.162 Y151.759
G1 F900 X61.643 Y73.239 E1104.34551
G0 F9000 X62.209 Y73.239
G1 F900 X140.728 Y151.759 E1117.67071
G0 F9000 X141.294 Y151.759
G1 F900 X62.774 Y73.239 E1130.99600
G0 F9000 X63.340 Y73.239
G1 F900 X141.859 Y151.759 E1144.32120
G0 F9000 X142.425 Y151.759
G1 F900 X63.906 Y73.239 E1157.64640
G0 F9000 X64.471 Y73.239
G1 F900 X142.991 Y151.759 E1170.97168
G0 F9000 X143.556 Y151.759
G1 F900 X65.037 Y73.239 E1184.29689
G0 F9000 X65.603 Y73.239
G1 F900 X144.122 Y151.759 E1197.62209
G0 F9000 X144.688 Y151.759
G1 F900 X66.168 Y73.239 E1210.94737
G0 F9000 X66.734 Y73.239
G1 F900 X145.253 Y151.759 E1224.27257
G0 F9000 X145.819 Y151.759
G1 F900 X67.300 Y73.239 E1237.59777
G0 F9000 X67.865 Y73.239
G1 F900 X146.385 Y151.759 E1250.92306
G0 F9000 X146.950 Y151.759
G1 F900 X68.431 Y73.239 E1264.24826
G0 F9000 X68.997 Y73.239
G1 F900 X147.516 Y151.759 E1277.57346
G0 F9000 X148.082 Y151.759
G1 F900 X69.563 Y73.239 E1290.89866
G0 F9000 X70.128 Y73.239
G1 F900 X148.647 Y151.759 E1304.22386
G0 F9000 X149.213 Y151.759
G1 F900 X70.694 Y73.239 E1317.54907
G0 F9000 X71.260 Y73.239
G1 F900 X149.779 Y151.759 E1330.87427
G0 F9000 X150.345 Y151.759
G1 F900 X71.825 Y73.239 E1344.19955
G0 F9000 X72.391 Y73.239
G1 F900 X150.910 Y151.759 E1357.52475
G0 F9000 X151.476 Y151.759
G1 F900 X72.957 Y73.239 E1370.84995
G0 F9000 X73.522 Y73.239
G1 F900 X152.042 Y151.759 E1384.17524
G0 F9000 X152.607 Y151.759
G1 F900 X74.088 Y73.239 E1397.50044
G0 F9000 X74.654 Y73.239
G1 F900 X153.173 Y151.759 E1410.82564
G0 F9000 X153.739 Y151.759
G1 F900 X75.219 Y73.239 E1424.15093
G0 F9000 X75.785 Y73.239
G1 F900 X154.304 Y151.759 E1437.47613
G0 F9000 X154.870 Y151.759
G1 F900 X76.351 Y73.239 E1450.80133
G0 F9000 X76.916 Y73.239
G1 F900 X155.436 Y151.759 E1464.12662
G0 F9000 X156.001 Y151.759
G1 F900 X77.482 Y73.239 E1477.45182
G0 F9000 X78.048 Y73.239
G1 F900 X156.567 Y151.759 E1490.77702
G0 F9000 X157.133 Y151.759
G1 F900 X78.614 Y73.239 E1504.10222
G0 F9000 X79.179 Y73.239
G1 F900 X157.698 Y151.759 E1517.42742
G0 F9000 X158.264 Y151.759
G1 F900 X79.745 Y73.239 E1530.75262
G0 F9000 X80.311 Y73.239
G1 F900 X158.830 Y151.759 E1544.07782
G0 F9000 X159.396 Y151.759
G1 F900 X80.876 Y73.239 E1557.40311
G0 F9000 X81.442 Y73.239
G1 F900 X159.961 Y151.759 E1570.72831
G0 F9000 X160.527 Y151.759
G1 F900 X82.008 Y73.239 E1584.05351
G0 F9000 X82.573 Y73.239
G1 F900 X161.093 Y151.759 E1597.37880
G0 F9000 X161.658 Y151.759
G1 F900 X83.139 Y73.239 E1610.70400
G0 F9000 X83.705 Y73.239
G1 F900 X162.224 Y151.759 E1624.02920
G0 F9000 X162.790 Y151.759
G1 F900 X84.270 Y73.239 E1637.35448
G0 F9000 X84.836 Y73.239
G1 F900 X163.355 Y151.759 E1650.67968
G0 F9000 X163.921 Y151.759
G1 F900 X85.402 Y73.239 E1664.00489
G0 F9000 X85.967 Y73.239
G1 F900 X164.487 Y151.759 E1677.33017
G0 F9000 X165.052 Y151.759
G1 F900 X86.533 Y73.239 E1690.65537
G0 F9000 X87.099 Y73.239
G1 F900 X165.618 Y151.759 E1703.98057
G0 F9000 X166.184 Y151.759
G1 F900 X87.664 Y73.239 E1717.30586
G0 F9000 X88.230 Y73.239
G1 F900 X166.749 Y151.759 E1730.63106
G0 F9000 X167.315 Y151.759
G1 F900 X88.796 Y73.239 E1743.95626
G0 F9000 X89.362 Y73.239
G1 F900 X167.881 Y151.759 E1757.28146
G0 F9000 X168.446 Y151.759
G1 F900 X89.927 Y73.239 E1770.60666
G0 F9000 X90.493 Y73.239
G1 F900 X169.012 Y151.759 E1783.93186
G0 F9000 X169.578 Y151.759
G1 F900 X91.059 Y73.239 E1797.25707
G0 F9000 X91.624 Y73.239
G1 F900 X169.758 Y151.373 E1810.51685
G0 F9000 X169.758 Y150.808
G1 F900 X92.190 Y73.239 E1823.68066
G0 F9000 X92.756 Y73.239
G1 F900 X169.758 Y150.242 E1836.74841
G0 F9000 X169.758 Y149.676
G1 F900 X93.321 Y73.239 E1849.72020
G0 F9000 X93.887 Y73.239
G1 F900 X169.758 Y149.111 E1862.59602
G0 F9000 X169.758 Y148.545
G1 F900 X94.453 Y73.239 E1875.37579
G0 F9000 X95.018 Y73.239
G1 F900 X169.758 Y147.979 E1888.05959
G0 F9000 X169.758 Y147.414
G1 F900 X95.584 Y73.239 E1900.64742
G0 F9000 X96.150 Y73.239
G1 F900 X169.758 Y146.848 E1913.13920
G0 F9000 X169.758 Y146.282
G1 F900 X96.715 Y73.239 E1925.53500
G0 F9000 X97.281 Y73.239
G1 F900 X169.758 Y145.717 E1937.83484
G0 F9000 X169.758 Y145.151
G1 F900 X97.847 Y73.239 E1950.03863
G0 F9000 X98.413 Y73.239
G1 F900 X169.758 Y144.585 E1962.14636
G0 F9000 X169.758 Y144.019
G1 F900 X98.978 Y73.239 E1974.15813
G0 F9000 X99.544 Y73.239
G1 F900 X169.758 Y143.454 E1986.07392
G0 F9000 X169.758 Y142.888
G1 F900 X100.110 Y73.239 E1997.89367
G0 F9000 X100.675 Y73.239
G1 F900 X169.758 Y142.322 E2009.61744
G0 F9000 X169.758 Y141.757
G1 F900 X101.241 Y73.239 E2021.24524
G0 F9000 X101.807 Y73.239
G1 F900 X169.758 Y141.191 E2032.77700
G0 F9000 X169.758 Y140.625
G1 F900 X102.372 Y73.239 E2044.21278
G0 F9000 X102.938 Y73.239
G1 F900 X169.758 Y140.060 E2055.55259
G0 F9000 X169.758 Y139.494
G1 F900 X103.504 Y73.239 E2066.79636
G0 F9000 X104.069 Y73.239
G1 F900 X169.758 Y138.928 E2077.94415
G0 F9000 X169.758 Y138.363
G1 F900 X104.635 Y73.239 E2088.99597
G0 F9000 X105.201 Y73.239
G1 F900 X169.758 Y137.797 E2099.95174
G0 F9000 X169.758 Y137.231
G1 F900 X105.766 Y73.239 E2110.81155
G0 F9000 X106.332 Y73.239
G1 F900 X169.758 Y136.666 E2121.57538
G0 F9000 X169.758 Y136.100
G1 F900 X106.898 Y73.239 E2132.24316
G0 F9000 X107.463 Y73.239
G1 F900 X169.758 Y135.534 E2142.81497
G0 F9000 X169.758 Y134.969
G1 F900 X108.029 Y73.239 E2153.29082
G0 F9000 X108.595 Y73.239
G1 F900 X169.758 Y134.403 E2163.67061
G0 F9000 X169.758 Y133.837
G1 F900 X109.161 Y73.239 E2173.95434
G0 F9000 X109.726 Y73.239
G1 F900 X169.758 Y133.271 E2184.14211
G0 F9000 X169.758 Y132.706
G1 F900 X110.292 Y73.239 E2194.23391
G0 F9000 X110.858 Y73.239
G1 F900 X169.758 Y132.140 E2204.22966
G0 F9000 X169.758 Y131.574
G1 F900 X111.423 Y73.239 E2214.12944
G0 F9000 X111.989 Y73.239
G1 F900 X169.758 Y131.009 E2223.93325
G0 F9000 X169.758 Y130.443
G1 F900 X112.555 Y73.239 E2233.64100
G0 F9000 X113.120 Y73.239
G1 F900 X169.758 Y129.877 E2243.25279
G0 F9000 X169.758 Y129.312
G1 F900 X113.686 Y73.239 E2252.76861
G0 F9000 X114.252 Y73.239
G1 F900 X169.758 Y128.746 E2262.18837
G0 F9000 X169.758 Y128.180
G1 F900 X114.817 Y73.239 E2271.51217
G0 F9000 X115.383 Y73.239
G1 F900 X169.758 Y127.615 E2280.74000
G0 F9000 X169.758 Y127.049
G1 F900 X115.949 Y73.239 E2289.87177
G0 F9000 X116.514 Y73.239
G1 F900 X169.758 Y126.483 E2298.90758
G0 F9000 X169.758 Y125.918
G1 F900 X117.080 Y73.239 E2307.84742
G0 F9000 X117.646 Y73.239
G1 F900 X169.758 Y125.352 E2316.69120
G0 F9000 X169.758 Y124.786
G1 F900 X118.211 Y73.239 E2325.43902
G0 F9000 X118.777 Y73.239
G1 F900 X169.758 Y124.220 E2334.09078
G0 F9000 X169.758 Y123.655
G1 F900 X119.343 Y73.239 E2342.64657
G0 F9000 X119.909 Y73.239
